!!!OTL: Die verunglueckte Muellerstochter
!!!OTL-incipit:Meister Mueller wollt' nachsehen,
!!!ARE: Europa, Mitteleuropa, Deutschland (BRD), Nord - Bayern, Mittel - Franken,
!!    Ipsheim
!!!YOR: 5, S. 187
!!    1962 aufgezeichnet
!!!SCT: Q0106A
!!!TXL: @@DE
!!!YEM: Copyright 1995, estate of Helmut Schaffrath.
**kern	**text
*ICvox	*
!! Irregular meter.
*MX	*
*k[f#c#]	*
*D:	*
{8AL	1._Mei-
8dJ	-ster
=1	=1
4f#	Mül-
4f#	-ler
8f#L	wollt'
8f#J	nach-
=2	=2
4f#	-se-
4e}	-hen,
{8eL	was
8f#J	in
=3	=3
8.gL	sei-
16gJ	-ner
8gL	Müh-
8bJ	-le
8aL	ist
8gJ	ge-
=4	=4
4g	-sche-
4f#}	-hen;
{8dL	denn
8f#J	.
=5	=5
4a	das
4f#	Mühl-
8r	.
8a	-rad,
=6	=6
4a	das
4f#	blei-
8r	.
8a	-bet
=7	=7
4dd	frei-
4b	-willig
=8	=8
4b	ste-
8a}	-hen,
{8f#L	es
8d	muß
8ddJ	et-
=9	=9
(4a	-was
8f#L)	.
8bJ	ʒu
8aL	Grun-
8gJ	-de
=10	=10
4g	ge-
4f#}	-hen.
==	==
!!!AGN: Ballade, Unfall, Tod
!!!ONB: ESAC (Essen Associative Code) Database: BALLADE
!!!AMT: irregular
!!!AIN: vox
!!!EED: Helmut Schaffrath
!!!EEV: 1.0
!!@@COMMENT:"A201 760 aus Jpsheim Mittelfranken.
!!Aufgeʒeichnet am 28. 11. 1962 von Albert Brosch.
!!Vorsänger: Fritʒ Egermeier."
!!@@END:
!!!source: Deutsche Volkslieder mit ihren Melodien Balladen. Herausgegeben vom Deutschen Volksliedarchiv. Fünfter Teil. Freiburg/Breisgau 1965.
!!!page: 187
!!!ENC: Anna Maria Matuszewska
!!!EEV: 2025/03/04
*-	*-
